icons/evolvere-blue-folders-flat-vivid-dark-fallback/mimetypes/64/office-presentation.svg

<?xml version="1.0" encoding="UTF-8" standalone="no"?>
<!-- Created with Inkscape (http://www.inkscape.org/) -->

<svg
   xmlns:dc="http://purl.org/dc/elements/1.1/"
   xmlns:cc="http://creativecommons.org/ns#"
   xmlns:rdf="http://www.w3.org/1999/02/22-rdf-syntax-ns#"
   xmlns:svg="http://www.w3.org/2000/svg"
   xmlns="http://www.w3.org/2000/svg"
   xmlns:sodipodi="http://sodipodi.sourceforge.net/DTD/sodipodi-0.dtd"
   xmlns:inkscape="http://www.inkscape.org/namespaces/inkscape"
   version="1.1"
   width="64"
   height="64"
   id="svg13094"
   inkscape:version="0.48.4 r9939"
   sodipodi:docname="office-presentation.svg">
  <sodipodi:namedview
     pagecolor="#ffffff"
     bordercolor="#666666"
     borderopacity="1"
     objecttolerance="10"
     gridtolerance="10"
     guidetolerance="10"
     inkscape:pageopacity="0"
     inkscape:pageshadow="2"
     inkscape:window-width="1920"
     inkscape:window-height="1022"
     id="namedview68"
     showgrid="true"
     inkscape:zoom="10.429825"
     inkscape:cx="38.157461"
     inkscape:cy="29.010006"
     inkscape:window-x="-5"
     inkscape:window-y="23"
     inkscape:window-maximized="1"
     inkscape:current-layer="svg13094"
     inkscape:snap-bbox="true"
     inkscape:bbox-paths="true"
     inkscape:bbox-nodes="true"
     inkscape:snap-bbox-edge-midpoints="true"
     inkscape:snap-bbox-midpoints="true"
     inkscape:object-paths="true"
     inkscape:snap-intersection-paths="true"
     inkscape:object-nodes="true"
     inkscape:snap-smooth-nodes="true"
     inkscape:snap-midpoints="true"
     inkscape:snap-object-midpoints="true"
     inkscape:snap-center="true">
    <inkscape:grid
       type="xygrid"
       id="grid3839" />
  </sodipodi:namedview>
  <defs
     id="defs11" />
  <metadata
     id="metadata13099">
    <rdf:RDF>
      <cc:Work
         rdf:about="">
        <dc:format>image/svg+xml</dc:format>
        <dc:type
           rdf:resource="http://purl.org/dc/dcmitype/StillImage" />
        <dc:title />
      </cc:Work>
    </rdf:RDF>
  </metadata>
  <path
     inkscape:connector-curvature="0"
     d="M 4,0 64,0 64,62 4,62 z"
     id="path3960"
     style="fill:#db4506;fill-opacity:1;fill-rule:nonzero" />
  <path
     style="fill:#802d00;fill-rule:nonzero;fill-opacity:0.3745614"
     d="M 60 2 L 60 33 L 35.677734 62 L 64 62 L 64 37 L 64 6 L 60 2 z "
     id="path3900" />
  <path
     inkscape:connector-curvature="0"
     d="M 0,2 60,2 60,33 34,64 0,64 z"
     id="path3982"
     style="fill:#ff6716;fill-rule:nonzero;color:#000000;fill-opacity:1;stroke:none;stroke-width:1;marker:none;visibility:visible;display:inline;overflow:visible;enable-background:accumulate" />
  <path
     inkscape:connector-curvature="0"
     d="M 34,64 60,33 c -2.328567,2.776369 -4.36141,3 -11,3 H 37 v 15 c 0,6.64407 0.04437,9.37018 -3,13 z"
     id="path4278"
     style="fill:#df4f0a;fill-rule:nonzero;fill-opacity:1" />
  <path
     style="font-size:medium;font-style:normal;font-variant:normal;font-weight:normal;font-stretch:normal;text-indent:0;text-align:start;text-decoration:none;line-height:normal;letter-spacing:normal;word-spacing:normal;text-transform:none;direction:ltr;block-progression:tb;writing-mode:lr-tb;text-anchor:start;baseline-shift:baseline;color:#000000;fill:#f8f2e0;fill-opacity:1;stroke:none;stroke-width:2;marker:none;visibility:visible;display:inline;overflow:visible;enable-background:accumulate;font-family:Sans;-inkscape-font-specification:Sans"
     d="M 5 7 L 5 8 L 5 21 L 5 22 L 6 22 L 14.5625 22 L 8.28125 28.28125 L 9.71875 29.71875 L 22.125 17.3125 C 22.139376 17.617321 22.140957 17.885406 22.21875 17.90625 C 22.430089 17.962878 23.163661 16.431628 23.375 16.375 C 23.586339 16.318372 24.970289 17.279711 25.125 17.125 C 25.279711 16.970289 24.318372 15.586339 24.375 15.375 C 24.431628 15.163661 25.962878 14.430089 25.90625 14.21875 C 25.849622 14.007411 24.154711 14.154711 24 14 C 23.845289 13.845289 23.992589 12.150378 23.78125 12.09375 C 23.569911 12.037122 22.836339 13.568372 22.625 13.625 C 22.413661 13.681628 21.029711 12.720289 20.875 12.875 C 20.720289 13.029711 21.681628 14.413661 21.625 14.625 C 21.568372 14.836339 20.037122 15.569911 20.09375 15.78125 C 20.114594 15.859043 20.382679 15.860624 20.6875 15.875 L 16.5625 20 L 7 20 L 7 9 L 27 9 L 27 20 L 21 20 L 21 22 L 28 22 L 29 22 L 29 21 L 29 8 L 29 7 L 28 7 L 6 7 L 5 7 z M 19.71875 22.28125 L 18.28125 23.71875 L 24.28125 29.71875 L 25.71875 28.28125 L 19.71875 22.28125 z "
     id="path3016" />
</svg>

<svg xmlns="http://www.w3.org/2000/svg" viewBox="0 0 64 64"><path d="m4 0h60v62h-60z" fill="#db4506"/><path d="m60 2v31l-24.322 29h28.322v-25-31l-4-4" fill="#802d00" fill-opacity=".375"/><path d="m0 2h60v31l-26 31h-34z" fill="#ff6716" color="#000"/><path d="m34 64l26-31c-2.329 2.776-4.361 3-11 3h-12v15c0 6.644.044 9.37-3 13" fill="#df4f0a"/><path d="m5 7v1 13 1h1 8.563l-6.281 6.281 1.438 1.438 12.406-12.406c.014.305.016.573.094.594.211.057.945-1.475 1.156-1.531.211-.057 1.595.905 1.75.75.155-.155-.807-1.539-.75-1.75.057-.211 1.588-.945 1.531-1.156-.057-.211-1.752-.064-1.906-.219-.155-.155-.007-1.85-.219-1.906-.211-.057-.945 1.475-1.156 1.531-.211.057-1.595-.905-1.75-.75-.155.155.807 1.539.75 1.75-.057.211-1.588.945-1.531 1.156.021.078.289.079.594.094l-4.125 4.125h-9.563v-11h20v11h-6v2h7 1v-1-13-1h-1-22-1m14.719 15.281l-1.438 1.438 6 6 1.438-1.438-6-6" color="#000" fill="#f8f2e0"/></svg>
